X: 28566
T: Murphy The Big Man
R: barndance
M: 4/4
K: Dmajor
A3 B ADFD|ADFD CEEB|A3 B ADFD|CDEF G3 B|
A2 FD A,DFD|ADFD CEEB|AFDA BAGF|GECE D4:|
d2 Ad B3 A|GBef eB B2|d2 Ad BAGF|EFGA B3 c|
dABd AFGF|Eeef edBc|dfff B2 ec|dBAG FD D2:|

